Obsidian-SemiLight/actions/22s/im-ban-kick-user.svg

<svg viewBox="0 0 22 22" xmlns="http://www.w3.org/2000/svg"><g fill="#da4453"><path d="m7.837891 7.130859a5 5 0 0 0 -.707032.707032l3.16211 3.162109-3.16211 3.162109a5 5 0 0 0 .707032.707032l3.162109-3.16211 3.162109 3.16211a5 5 0 0 0 .707032-.707032l-3.16211-3.162109 3.16211-3.162109a5 5 0 0 0 -.707032-.707032l-3.162109 3.16211z"/><path d="m11 3a8 7.99997 0 0 0 -8 8 8 7.99997 0 0 0 8 8 8 7.99997 0 0 0 8-8 8 7.99997 0 0 0 -8-8m0 1a7 6.999974 0 0 1 7 7 7 6.999974 0 0 1 -7 7 7 6.999974 0 0 1 -7-7 7 6.999974 0 0 1 7-7"/></g></svg>

<svg xmlns="http://www.w3.org/2000/svg" viewBox="0 0 22 22">
 <g style="fill:#da4453">
  <path d="M7.837891 7.130859A5 5 0 0 0 7.130859 7.837891L10.292969 11 7.130859 14.162109A5 5 0 0 0 7.837891 14.869141L11 11.707031 14.162109 14.869141A5 5 0 0 0 14.869141 14.162109L11.707031 11 14.869141 7.837891A5 5 0 0 0 14.162109 7.130859L11 10.292969 7.837891 7.130859"/>
  <path d="M11 3A8 7.99997 0 0 0 3 11 8 7.99997 0 0 0 11 19 8 7.99997 0 0 0 19 11 8 7.99997 0 0 0 11 3M11 4A7 6.999974 0 0 1 18 11 7 6.999974 0 0 1 11 18 7 6.999974 0 0 1 4 11 7 6.999974 0 0 1 11 4"/>
 </g>
</svg>
